resources/svg/hand-heart-fill.svg

<svg fill="currentColor" viewBox="0 0 24 24" xmlns="http://www.w3.org/2000/svg"><path d="M9.3349 11.5021L11.5049 11.5026C13.9902 11.5026 16.0049 13.5173 16.0049 16.0026L9.00388 16.0017L9.00488 17.0026L17.0049 17.0018V16.0026C17.0049 14.9201 16.6867 13.8995 16.1188 13.0018L19.0049 13.0026C20.9972 13.0026 22.7173 14.1678 23.521 15.854C21.1562 18.9746 17.3268 21.0026 13.0049 21.0026C10.2436 21.0026 7.90437 20.4119 6.00447 19.3778L6.00592 10.0736C7.25147 10.2519 8.39122 10.7582 9.3349 11.5021ZM4.00488 9.00256C4.51772 9.00256 4.94039 9.3886 4.99816 9.88594L5.00488 10.0017V19.0026C5.00488 19.5548 4.55717 20.0026 4.00488 20.0026H2.00488C1.4526 20.0026 1.00488 19.5548 1.00488 19.0026V10.0026C1.00488 9.45027 1.4526 9.00256 2.00488 9.00256H4.00488ZM13.6513 3.57794L14.0046 3.9317L14.3584 3.57794C15.3347 2.60163 16.9177 2.60163 17.894 3.57794C18.8703 4.55425 18.8703 6.13716 17.894 7.11347L14.0049 11.0026L10.1158 7.11347C9.13948 6.13716 9.13948 4.55425 10.1158 3.57794C11.0921 2.60163 12.675 2.60163 13.6513 3.57794Z"/></svg>

<svg xmlns="http://www.w3.org/2000/svg" viewBox="0 0 24 24" fill="currentColor">
    <g>
        <path fill="none" d="M0 0h24v24H0z"/>
        <path d="M9.33 11.5h2.17A4.5 4.5 0 0 1 16 16H8.999L9 17h8v-1a5.578 5.578 0 0 0-.886-3H19a5 5 0 0 1 4.516 2.851C21.151 18.972 17.322 21 13 21c-2.761 0-5.1-.59-7-1.625L6 10.071A6.967 6.967 0 0 1 9.33 11.5zM4 9a1 1 0 0 1 .993.883L5 10V19a1 1 0 0 1-1 1H2a1 1 0 0 1-1-1v-9a1 1 0 0 1 1-1h2zm9.646-5.425L14 3.93l.354-.354a2.5 2.5 0 1 1 3.535 3.536L14 11l-3.89-3.89a2.5 2.5 0 1 1 3.536-3.535z"/>
    </g>
</svg>
